third_party/noto/noto_2/emoji_u2702.svg

<svg enable-background="new 0 0 128 128" version="1.1" viewBox="0 0 128 128" xmlns="http://www.w3.org/2000/svg"><path d="m36.61 123.93 48.56-69.33-7.99-15.61c-6.69 4.63-21.21 14.68-23.41 16.07-0.59 0.37-1.04 0.9-1.3 1.54 0 0-16.48 42.97-19.16 49.93-2.91 7.57-2.96 10.64-2.21 12.9 0.65 1.99 5.51 4.5 5.51 4.5z" fill="#82AEC0"/><path d="m112.73 5.68c-10.25-4.65-22.88 1.09-28.21 12.83-2.13 4.69-2.17 10.11-2.15 12.14 0.03 2.8-4.29 6.87-5.66 8.08-0.24 0.21-0.29 0.56-0.13 0.83l8.4 14.64c0.22 0.38 0.73 0.45 1.05 0.15l1.68-1.6c4.65-3.59 8.96-3.37 10.63-3.13 9.08 1.29 18.79-4.35 23.29-14.26 5.34-11.74 1.35-25.03-8.9-29.68zm-15.44 34c-6.15-2.79-8.54-10.76-5.35-17.8 3.2-7.04 10.77-10.49 16.92-7.7s8.54 10.76 5.35 17.8c-3.19 7.05-10.77 10.5-16.92 7.7z" fill="#DE3E31"/><circle cx="64" cy="62.87" r="4.55" fill="#A8E3F0"/><polygon points="49.17 65.19 60.65 89.61 64.47 84.15 49.9 63.29" fill="#2F7889"/><path d="m77.82 65.09 2.61-3.72-1.89-5.18c-0.68-2-0.97-3.01-2.27-3.63l-11.53-4.98-1.24 0.86 14.32 16.65z" fill="#2F7889"/><path d="m91.39 123.93-48.56-69.33 7.72-15.8c6.56 4.54 21.45 14.85 23.68 16.25 0.59 0.37 1.04 0.9 1.3 1.54 0 0 16.48 42.97 19.16 49.93 2.91 7.57 2.96 10.64 2.21 12.9-0.65 2-5.51 4.51-5.51 4.51z" fill="#82AEC0"/><path d="m60.05 76.15-3.02-1.29 34.36 49.06s3.7-3.95-1.02-11.23l-20.96-28.73c-2.29-3.46-5.54-6.18-9.36-7.81z" fill="#B9E4EA"/><circle cx="64" cy="62.87" r="4.55" fill="#B9E4EA"/><path d="m6.36 35.36c4.5 9.92 14.21 15.55 23.29 14.26 1.67-0.24 5.97-0.46 10.63 3.13l1.68 1.6c0.32 0.3 0.83 0.23 1.05-0.15l8.4-14.64c0.16-0.28 0.11-0.62-0.13-0.83-1.36-1.21-5.69-5.28-5.66-8.08 0.02-2.03-0.02-7.45-2.15-12.14-5.32-11.74-17.95-17.48-28.2-12.83s-14.24 17.94-8.91 29.68zm7.43-3.37c-3.2-7.04-0.8-15.01 5.35-17.8s13.72 0.65 16.92 7.7c3.2 7.04 0.8 15.01-5.35 17.8s-13.73-0.66-16.92-7.7z" fill="#DE3E31"/><path d="m92.67 10.75c-0.6 0.71-0.95 1.76-0.38 2.65 0.63 0.99 3.45 1.1 9.37-3.02 1.65-1.15 1.23-2.83-0.8-3.1-2.93-0.45-6.39 1.17-8.19 3.47z" fill="#FF7555"/><path d="m17.71 11.7c-2.5 1.43-3.56 2.27-5.58 5.62-0.63 1.04-2.06 3.73-3.49 2.51-0.94-0.8-0.87-2.65-0.28-4.33 1.21-3.41 3.29-5.91 6.21-7.39 1.05-0.53 3.63-1.36 5.06-0.8 2.8 1.09 0.28 3.14-1.92 4.39z" fill="#FF7555"/></svg>

<?xml version="1.0" encoding="utf-8"?>
<!-- Generator: Adobe Illustrator 25.2.3, SVG Export Plug-In . SVG Version: 6.00 Build 0)  -->
<svg version="1.1" id="Layer_5" xmlns="http://www.w3.org/2000/svg" xmlns:xlink="http://www.w3.org/1999/xlink" x="0px" y="0px"
	 viewBox="0 0 128 128" style="enable-background:new 0 0 128 128;" xml:space="preserve">
<g>
	<g>
		<g>
			<g>
				<path style="fill:#82AEC0;" d="M36.61,123.93L85.17,54.6l-7.99-15.61c-6.69,4.63-21.21,14.68-23.41,16.07
					c-0.59,0.37-1.04,0.9-1.3,1.54c0,0-16.48,42.97-19.16,49.93c-2.91,7.57-2.96,10.64-2.21,12.9
					C31.75,121.42,36.61,123.93,36.61,123.93z"/>
			</g>
		</g>
		<path style="fill:#DE3E31;" d="M112.73,5.68c-10.25-4.65-22.88,1.09-28.21,12.83c-2.13,4.69-2.17,10.11-2.15,12.14
			c0.03,2.8-4.29,6.87-5.66,8.08c-0.24,0.21-0.29,0.56-0.13,0.83l8.4,14.64c0.22,0.38,0.73,0.45,1.05,0.15l1.68-1.6
			c4.65-3.59,8.96-3.37,10.63-3.13c9.08,1.29,18.79-4.35,23.29-14.26C126.97,23.62,122.98,10.33,112.73,5.68z M97.29,39.68
			c-6.15-2.79-8.54-10.76-5.35-17.8c3.2-7.04,10.77-10.49,16.92-7.7c6.15,2.79,8.54,10.76,5.35,17.8
			C111.02,39.03,103.44,42.48,97.29,39.68z"/>
	</g>
	<g>
		<circle style="fill:#A8E3F0;" cx="64" cy="62.87" r="4.55"/>
	</g>
	<polygon style="fill:#2F7889;" points="49.17,65.19 60.65,89.61 64.47,84.15 49.9,63.29 	"/>
	<path style="fill:#2F7889;" d="M77.82,65.09l2.61-3.72l-1.89-5.18c-0.68-2-0.97-3.01-2.27-3.63l-11.53-4.98l-1.24,0.86L77.82,65.09
		z"/>
	<g>
		<g>
			<g>
				<path style="fill:#82AEC0;" d="M91.39,123.93L42.83,54.6l7.72-15.8C57.11,43.34,72,53.65,74.23,55.05
					c0.59,0.37,1.04,0.9,1.3,1.54c0,0,16.48,42.97,19.16,49.93c2.91,7.57,2.96,10.64,2.21,12.9
					C96.25,121.42,91.39,123.93,91.39,123.93z"/>
			</g>
		</g>
		<path style="fill:#B9E4EA;" d="M60.05,76.15l-3.02-1.29l34.36,49.06c0,0,3.7-3.95-1.02-11.23L69.41,83.96
			C67.12,80.5,63.87,77.78,60.05,76.15z"/>
		<circle style="fill:#B9E4EA;" cx="64" cy="62.87" r="4.55"/>
		<path style="fill:#DE3E31;" d="M6.36,35.36c4.5,9.92,14.21,15.55,23.29,14.26c1.67-0.24,5.97-0.46,10.63,3.13l1.68,1.6
			c0.32,0.3,0.83,0.23,1.05-0.15l8.4-14.64c0.16-0.28,0.11-0.62-0.13-0.83c-1.36-1.21-5.69-5.28-5.66-8.08
			c0.02-2.03-0.02-7.45-2.15-12.14C38.15,6.77,25.52,1.03,15.27,5.68S1.03,23.62,6.36,35.36z M13.79,31.99
			c-3.2-7.04-0.8-15.01,5.35-17.8c6.15-2.79,13.72,0.65,16.92,7.7c3.2,7.04,0.8,15.01-5.35,17.8
			C24.56,42.48,16.98,39.03,13.79,31.99z"/>
	</g>
	<path style="fill:#FF7555;" d="M92.67,10.75c-0.6,0.71-0.95,1.76-0.38,2.65c0.63,0.99,3.45,1.1,9.37-3.02
		c1.65-1.15,1.23-2.83-0.8-3.1C97.93,6.83,94.47,8.45,92.67,10.75z"/>
	<path style="fill:#FF7555;" d="M17.71,11.7c-2.5,1.43-3.56,2.27-5.58,5.62c-0.63,1.04-2.06,3.73-3.49,2.51
		c-0.94-0.8-0.87-2.65-0.28-4.33c1.21-3.41,3.29-5.91,6.21-7.39c1.05-0.53,3.63-1.36,5.06-0.8C22.43,8.4,19.91,10.45,17.71,11.7z"/>
</g>
</svg>
